X: 85
T: Aman Felek
C: Dede Efendi
O: Turkey
F: http://compmusic.upf.edu/node/140
N: ussak--sarki--aksak--aman_felek--dede_efendi
N: makam= ussak
N: form= sarki
N: usul= aksak = 9/8
M: 9/8
L: 1/16
K: C _2/4B   
Q: 1/4=120
%%MIDI tuningsystem comma53
e3d edcB c4 d2e2 f2 | e3ded cBc4d2 e2f2  | \
w:  ARANAĞME  |   | 
agfe d2fe eddc cBBA AG | 
w:   | 
A6 cBA4d2 e2f2  | e3d edcB c4 d2e2 f2 | \
w:   |  ARANAĞME  | 
e3ded cBc4d2 e2f2  | 
w:   | 
agfe d2fe eddc cBBA AG | c4B2 d2c2 B2B4BA  | 
w:   |   | 
A4 G4 A2B2 c2d4 | fe fge2 d2c2 B2fe d2cB  | \
w:  Ah  a man  *  fe lek   |  öm *  *  *  rüm  *  fe *  lek   | 
A4 G4 A2B2 c2d4 | 
w:  Ah  a man  *  fe lek   | 
fe fge2 d2c2 B2fe d2cB  | A4 B2c2 d4 d6 | \
w:  öm *  *  *  rüm  *  fe *  lek   |  *  Ni ya zım  var   | 
e2 fge2 d2c2 B2A4G2  | 
w:  geç *  *  *  *  mez  *  *  di  | 
c4 B2d2 c2B2 B4 BA | A6 cBBA AGAB cABG  | 
w:  lek  a  ya rim  *  *  a  |  man    | 
d4 G4 A2B2 c4 d2 | fe fge2 d2c2 B2fe d2cB  | \
w:  *  As lı  *  hu ri   |  so *  *  *  yu  *  me *  lek   | 
d4 G4 A2B2 c4 d2 | 
w:  *  As lı  *  hu ri   | 
fe fge2 d2c2 B2fe d2cB  | A4 B2c2 d4 d6 | \
w:  so *  *  *  yu  *  me *  lek   |  *  Ya rim  et me   | 
e2 fge2 d2c2 B2A4G2  | 
w:  e *  *  *  *  da *  *  la  | 
c4 B2d2 c2B2 B4 BA | A6 dccB BAA6  | \
w:  rın  a  ya rim  *  *  a  |  man   SAZ  | 
A4 G4 A2B2 c2d4 | 
w:  Ah  a man  *  fe lek   | 
fe fge2 d2c2 B2fe d2cB  | A4 G4 A2B2 c2d4 | \
w:  öm *  *  *  rüm  *  fe *  lek   |  Ah  a man  *  fe lek   | 
fe fge2 d2c2 B2fe d2cB  | 
w:  öm *  *  *  rüm  *  fe *  lek   | 
A4 B2c2 d4 d6 | e2 fge2 d2c2 B2A4G2  | \
w:  *  Ni ya zım  var   |  geç *  *  *  *  mez  *  *  di  | 
c4 B2d2 c2B2 B4 BA | 
w:  lek  a  ya rim  *  *  a  | 
A6 cBBA AGAB cABG  | d4 G4 A2B2 c4 d2 | \
w:  man    |  *  As lı  *  hu ri   | 
fe fge2 d2c2 B2fe d2cB  | 
w:  so *  *  *  yu  *  me *  lek   | 
d4 G4 A2B2 c4 d2 | fe fge2 d2c2 B2fe d2cB  | \
w:  *  As lı  *  hu ri   |  so *  *  *  yu  *  me *  lek   | 
A4 B2c2 d4 d6 | 
w:  *  Ya rim  et me   | 
e2 fge2 d2c2 B2A4G2  | c4 B2d2 c2B2 B4 BA | \
w:  e *  *  *  *  da *  *  la  |  rın  a  ya rim  *  *  a  | 
A6 dccB BAA6  | 
w:  man   SAZ  | 
|


